X:1
T:De mon malheur
T:De mon malheur 3v
T:Tielman Susato
T:Source :  Le premier livre des Chansons à 3 parties--Anvers---T.Susato---1544. Editor : André Vierendeels (02/12/14).
T:Notes: Original clefs : C2, C4, F4 Original note values have been halved Editorial accidentals above the staff Notice above the S voice : "Chantez a deux si bon vous samble, puis chanterez tous trois ensamble" Notice above the B voice : "Veulx tu chanter a bon advis , attends que tu en soys requis" 
C:Tielman Susato
%%score [ 1 2 3 ]
L:1/8
Q:1/4=120
M:2/2
K:C
V:1 treble nm="Alto" snm="A"
V:2 treble-8 nm="Tenor" snm="T"
V:3 bass nm="Bass" snm="B"
V:1
 z4 D4 | D2 D2 F4- | F2 D2 C2 D2 | E2 E2 G4 | F2 E4 D2 | E8 | A4 A2 A2 | G2 G2 A2 A2 | %8
w: De|mon mal- heur|_ me puis ie|bien con- ten-||ter,|de tant a-|voir, ie ne men|
 _B2 A3 G F2 | E2 D2 F4- | F2 E2 D4 | ^C8 | z4 D4 | D2 D2 F4- | F2 D2 C2 D2 | E2 E2 G4 | F2 E4 D2 | %17
w: doibs la- * *|men- * *||ter,|à|tous les maulx|_ me puis ie|bien ad- dres-||
 E4 z4 | A4 A2 A2 | G2 G2 A2 A2 | _B2 A3 G F2 | E2 G2 F2 E2- | ED D4 C2 | D8 | E4 E2 E2 | F6 E2 | %26
w: ser,|à tous a-|mis, à tous a-|mis ie _ _|ne me puis con|_ _ fes- *|ser,|de tous sou-|las me|
 A4 G2 E2 | F2 E4 D2 | E4 z2 E2 | E2 E2 A4 | z2 A2 A2 A2 | c3 B/A/ G2 E2 | F2 G2 A2 B2- | %33
w: puis ie bien|a- bre- *|ger, de|tous re- gretz,|de tous re-|gretz _ _ _ me|puis ie bien con-|
 BA A4 G2 | A2 A2 G2 F2- | F2 ED ^C4- | C4 z2 =C2 | D2 E2 F2 G2 | A2 A2 c3 B | A2 G4 F2- | %40
w: * * for- *|ter _ _ _|_ _ _ ter,|_ à|tous des- duictz me|puis ie bien _|_ ab- sen-|
 F2 E2 F2 A2- | A2 G2 F3 E | D2 F2 F2 G2 | A6 A2 | G2 G2 F2 F2 | G3 F ED CB, | A,2 C2 D2 F2 | %47
w: ||ter, puis- que dung|point ne|me puis re- con-|for- * * * * *||
 E2 D4 C2 | D4 z4 | F4 F2 G2 | A6 A2 | G2 G2 F2 F2 | G3 F ED CB, | A,B, CD E2 F2 | E2 D4 C2 | D8 |] %56
w: |ter,|puis- que dung|point ne|me puis re- con-|for- * * * * *|||ter.|
V:2
 D3 E F2 G2- | G2 FE DEFG |"^-natural" A2 _B2 A2 B2 | c4 B2 G2 | A3 G F4 | E4 A3 B | c2 d2 c2 A2 | %7
w: De _ _ mon|_ _ _ _ _ _ _|* mal- heur me|puis ie bien|con- * ten-|ter de _|_ tant a- voir|
"^b" B2 c3 B A2 | G2 F3 E FG | A2 _B2 A2 D2 | D2 E2 F2 G2 | E8 | D3 E F2 G2- | G2 FE DE FG | %14
w: ie ne _ _|_ doibs _ _ _|_ la- men- *||ter,|à _ _ tous|_ les _ maulx _ _ _|
"^-natural" A2 _B2 A2 B2 | c2 c2 B2 G2 | A3 G F4 | E4 A3 B | c2 d4 c2 | B2 c3 B A2 | G2 FE FG AF | %21
w: _ me puis ie|bien ad- dres- *||ser, à _|_ tous a-|mis ne _ _|me puis _ _ _ _ _|
 GA _B2 A4 | G2 F2 E4 | D4 z4 | G4 G2 G2 | A2 FG AB c2- | c2 BA B2 A2- | A2 G2 F4 | E2 A2 A2 A2 | %29
w: _ _ _ con-|fes- * *|ser,|de tous sou-|la me _ _ _ puis|_ ie _ bien a-|* bre- *|ger, de tous re-|
 c4 z2 d2 | d2 d2 f3 e/d/ | c2 A2 c4 | d2 e2 c2 d2 | dc cB/A/ B4 | A2 F2 G2 A2 | DE FG A4 | %36
w: gretz, de|tous re gretz _ _|_ _ me|puis ie bien con-|for- * * * * *|ter, à tous des-|duictz, _ _ _ _|
 z2 F2 G2 A2 | B2 c2 d2 cB | A2 FG AB c2- | c2 B2 A2 GF | G4 F2 F2 | F2 G2 A2 F2 | G2 A2 _B2 B2 | %43
w: à tous des-|duictz me puis ie _|bien ab- * * * *||sen- ter, puis-|que dung point, puis-|que dung point ne|
 AG FE D2 A2 | B2 c2 d4 | c2 B2 cB AG | F2 A2 G2 F2 | GF FE/D/ E4 | D2 F2 F2 G2 | A6 B2 | %50
w: me _ _ _ _ puis|re- con- for-||||ter, puis- que dung|point ne|
 c2 d4 c2 | B2 c2 A2 _B2 | G2 c3 B AG | F2 A4 F2 | GF FE/D/ E4 | D8 |] %56
w: me puis re-|con- for- * *||||ter.|
V:3
 z8 | z4 z2 D,2 | D,2 D,2 F,2 D,2 | C,3 D, E,2 E,2 | D,2 C,2 D,4 | A,,8 | F,4 F,2 F,2 | %7
w: |De|mon mal- heur me|puis _ _ ie|bien con- ten-|ter,|de tant a-|
 E,2 C,2 F,2 F,2 | G,2 A,2 D,4 | z2 G,,2 D,2 F,2- | F,2 C,2 D,2 G,,2 | A,,8 | F,3 G, A,2 _B,2- | %13
w: voir ne men doibs|la- men- ter,|ne men doibs|_ la- * men-|ter,|à _ _ tous|
 B,2 A,G, F,2 D,2 | D,2 D,2 F,2 D,2 | C,2 A,,2 E,2 E,2 | F,2 C,2 D,4 | A,,4 F,4 |"^#" F,2 D,2 A,4 | %19
w: _ les _ maulx, à|tous les maulx me|puis ie bien ad-|dres- * *|ser, à|tous mes a-|
 E,4 F,2 F,2 | G,2 A,2 D,4 | C,2 G,,2 A,,3 B,, | C,2 D,2 A,,4 | D,8 | C,4 C,2 E,2 | D,6 C,2 | %26
w: mis ie ne|me puis con-|fes- ser, me _|_ con- fes-|ser,|de tous sou-|las me|
 A,,2 A,,2 E,2 A,,2- | A,,B,, C,2 D,2 D,2 | A,,4 z2 A,2 |"^#" A,2 A,2 D,4 | z2 D,2 D,2 D,2 | %31
w: puis ie bien a-|* * * * bre-|ger, de|tous re- gretz,|de tous re-|
 A,3 G,/F,/ E,2 C,2 | F,2 E,2 F,2 D,2 | F,4 E,4 | A,,2 D,2 E,2 A,,2 | _B,,4 A,,4 | %36
w: gretz _ _ _ me|puis ie bien con-|for- *|ter, con- for- *|* ter,|
"^b" A,4 B,2 A,2 | D,2 A,,2 D,2 E,2 | F,3 E, F,G, A,2- | A,G, E,2 F,2 D,2 | C,4 z2 D,2 | %41
w: à _ des-|duictz me puis ie|bien _ _ _ ab-|* * * * sen-|ter, puis-|
 F,2 E,2 D,4 | z2 D,2 D,2 E,2 |"^#" F,6 F,2 | E,2 E,2 D,2 D,2 | E,4 A,,4 | z2 A,,2 B,,2 D,2 | %47
w: que dung point,|puis- que dung|point ne|me puis re- con-|for- ter,|ne me puis|
 C,2 D,2 A,,4 | D,4 z4 |"^#" D,4 D,2 G,2 | F,3 E,/D,/ A,4 | E,4 F,2 D,2 | E,3 D, C,2 F,2- | %53
w: re- con- for-|ter,|puis- que dung|point _ _ _|ne me puis|re- * * con-|
 F,2 E,D, C,A,, D,2 | C,2 E,2 A,,4 | D,8 |] %56
w: * for- * * * *||ter.|

